X: 24524
T: Lucy Farr's
R: barndance
M: 4/4
K: Gmajor
|:G4 G3G-|G>AB>G E2 D2|B4 B3 B-|B>cd>B A3B-|
B>cd>B G3G-|G>AB>G E2D2|D>EG>A B>dd>B|A2 G2 G4:|
|:B>cd>B G3G-|G>AB>G E2 D2|D>EG>A B>dd>B|B2 A2 A4|
B>cd>B G3G-|G>AB>G E2 D2|D>EG>A B>dd>B|A2 G2 G4:|

